X:1
T: Galloway House
C:
R:Reel
Q: 232
K:G
M:4/4
L:1/8
G|:B2 B2 B2 AG|E4 G3E|D2 D2 E2 G2|B2 A2 A2 GA|
B2 B2 B2 AG|E4 G3E|D2 D2 E2 F2|G6 GA|
B2 B2 B2 AG|c4 e2 c2|B2 d2 B2 G2|B2 A2 A2 GA|
B2 B2 B2 AG|E4 G3E|D2 D2 E2 F2|G6:|
